X:14
T:Huobli-Juiz  Bb
T:Xaver Ambauen  (* 3.2.1925)
T:Dirigenten-Notiz, Edi Gasser
C:Unterwalden (CH)
%%partsbox
M:2/4+3/4
R:Naturjodel
L:1/8
K:Bb
[P:A] "ruhig fliessend"  B>F DF | Bcd2 | Fe df | c>F EF c/f/ d/c/ | B>F Dd | B4 | 
B>F DF | Bcd2 | Fe df | c>F EF c/f/ d/c/ | B4 z2 || 
M:3/4+2/4
[P:B] "etwas schneller"  B/A/B/ | c>F EF f/e/ c/d/ | B>F DF B/d/ f/d/ | 
c>F EF f/e/ c/d/ | B>F Dd | B4 z/B/A/B/ | c>F EF f/e/ c/d/ | 
B>F DF B/d/ f/d/ | c>F EF f/e/ c/d/ | B4z2 || 
L:1/4
M:4/4
[P:C] "frisch und bestimmt"  eG>e G/e/ | dF>d F/d/ |  cE>c F/d/ | 
B>cd2 | eG>e G/e/ | dF>d F/d/ | cE>F [df]/[ce]/ | [Bd]4 |] 
W:
%W:Reihenfolge: ABAC
W:notiert Edi Gasser, nach Angabe von  Hans Schmid
W:UJV-Naturjodelsammlung: Code-Nr: 08-07
W:http://www.naturjodler.ch/code 08.htm  (with AUDIO)
%May 4, 2018

